assets/img/braze_icons/line-chart-down-04.svg

<svg fill="none" height="24" viewBox="0 0 24 24" width="24" xmlns="http://www.w3.org/2000/svg"><g fill="#801ed7"><path d="m17.8385 2h-11.67704c-.52713-.00002-.98192-.00003-1.35649.03057-.39534.0323-.78856.10362-1.16694.29641-.56449.28762-1.02343.74656-1.31105 1.31105-.19279.37838-.26411.7716-.29641 1.16694-.0306.37457-.03059.82932-.03057 1.35645v.50631c0 .1511 0 .22665.02027.29565.01795.0611.0474.11821.08678.16826.04448.05652.10603.10032.22915.18792l7.55468 5.37544 2.93812-2.9381c.0719-.072.1601-.16024.2446-.23289.0998-.08576.2463-.19668.4467-.27307.2641-.10069.5512-.12472.8284-.06932.2103.04203.3732.12705.4858.19503.0955.0576.1971.12995.28.18899l5.6217 4.00006c.4085.2907.6127.436.783.4295.1482-.0057.2862-.0769.3768-.1944.104-.1349.104-.3856.104-.8869v-6.75246c0-.52714 0-.9819-.0306-1.35647-.0323-.39534-.1036-.78856-.2964-1.16694-.2876-.56449-.7465-1.02343-1.311-1.31105-.3784-.19279-.7716-.26411-1.167-.29641-.3745-.0306-.8293-.03059-1.3565-.03057z"/><path d="m22 17.3322c0-.1511 0-.2267-.0203-.2957-.0179-.0611-.0474-.1182-.0868-.1682-.0444-.0565-.106-.1003-.2291-.1879l-7.5545-5.3754-2.9381 2.9381c-.072.072-.1601.1603-.2447.2329-.0997.0858-.2463.1967-.4466.2731-.2641.1007-.55128.1247-.82843.0693-.21027-.042-.37322-.127-.48585-.195-.09542-.0576-.19701-.1299-.27991-.189l-5.6219-4.0002c-.40849-.2906-.61274-.43597-.78297-.4294-.14822.0056-.28626.0768-.37682.1943-.10402.1349-.10402.3856-.10402.8869v6.7525c-.00002.5272-.00003.982.03057 1.3565.0323.3954.10362.7886.29641 1.167.28762.5645.74656 1.0234 1.31105 1.311.37838.1928.7716.2641 1.16694.2964.37457.0306.82933.0306 1.35647.0306h11.67716c.5271 0 .9819 0 1.3564-.0306.3954-.0323.7886-.1036 1.167-.2964.5645-.2876 1.0234-.7465 1.311-1.311.1928-.3784.2641-.7716.2964-1.167.0306-.3745.0306-.8293.0306-1.3564z"/></g></svg>

<svg width="24" height="24" viewBox="0 0 24 24" fill="none" xmlns="http://www.w3.org/2000/svg">
<path d="M17.8385 2H6.16146C5.63433 1.99998 5.17954 1.99997 4.80497 2.03057C4.40963 2.06287 4.01641 2.13419 3.63803 2.32698C3.07354 2.6146 2.6146 3.07354 2.32698 3.63803C2.13419 4.01641 2.06287 4.40963 2.03057 4.80497C1.99997 5.17954 1.99998 5.63429 2 6.16142V6.66773C2 6.81883 2 6.89438 2.02027 6.96338C2.03822 7.02448 2.06767 7.08159 2.10705 7.13164C2.15153 7.18816 2.21308 7.23196 2.3362 7.31956L9.89088 12.695L12.829 9.7569C12.9009 9.6849 12.9891 9.59666 13.0736 9.52401C13.1734 9.43825 13.3199 9.32733 13.5203 9.25094C13.7844 9.15025 14.0715 9.12622 14.3487 9.18162C14.559 9.22365 14.7219 9.30867 14.8345 9.37665C14.93 9.43425 15.0316 9.5066 15.1145 9.56564L20.7362 13.5657C21.1447 13.8564 21.3489 14.0017 21.5192 13.9952C21.6674 13.9895 21.8054 13.9183 21.896 13.8008C22 13.6659 22 13.4152 22 12.9139V6.16144C22 5.6343 22 5.17954 21.9694 4.80497C21.9371 4.40963 21.8658 4.01641 21.673 3.63803C21.3854 3.07354 20.9265 2.6146 20.362 2.32698C19.9836 2.13419 19.5904 2.06287 19.195 2.03057C18.8205 1.99997 18.3657 1.99998 17.8385 2Z" fill="#801ED7"/>
<path d="M22 17.3322C22 17.1811 22 17.1055 21.9797 17.0365C21.9618 16.9754 21.9323 16.9183 21.8929 16.8683C21.8485 16.8118 21.7869 16.768 21.6638 16.6804L14.1093 11.305L11.1712 14.2431C11.0992 14.3151 11.0111 14.4034 10.9265 14.476C10.8268 14.5618 10.6802 14.6727 10.4799 14.7491C10.2158 14.8498 9.92862 14.8738 9.65147 14.8184C9.4412 14.7764 9.27825 14.6914 9.16562 14.6234C9.0702 14.5658 8.96861 14.4935 8.88571 14.4344L3.26381 10.4342C2.85532 10.1436 2.65107 9.99823 2.48084 10.0048C2.33262 10.0104 2.19458 10.0816 2.10402 10.1991C2 10.334 2 10.5847 2 11.086V17.8385C1.99998 18.3657 1.99997 18.8205 2.03057 19.195C2.06287 19.5904 2.13419 19.9836 2.32698 20.362C2.6146 20.9265 3.07354 21.3854 3.63803 21.673C4.01641 21.8658 4.40963 21.9371 4.80497 21.9694C5.17954 22 5.6343 22 6.16144 22H17.8386C18.3657 22 18.8205 22 19.195 21.9694C19.5904 21.9371 19.9836 21.8658 20.362 21.673C20.9265 21.3854 21.3854 20.9265 21.673 20.362C21.8658 19.9836 21.9371 19.5904 21.9694 19.195C22 18.8205 22 18.3657 22 17.8386V17.3322Z" fill="#801ED7"/>
</svg>
